app/assets/images/icons/cart.svg

<?xml version="1.0" encoding="UTF-8" standalone="no"?>
<svg width="30px" height="30px" viewBox="0 0 30 30" version="1.1" xmlns="http://www.w3.org/2000/svg" xmlns:xlink="http://www.w3.org/1999/xlink">
    <!-- Generator: Sketch 3.7.2 (28276) - http://www.bohemiancoding.com/sketch -->
    <title>cart</title>
    <desc>Created with Sketch.</desc>
    <defs></defs>
    <g id="Icons" stroke="none" stroke-width="1" fill="none" fill-rule="evenodd">
        <g id="cart" fill="#050505">
            <path d="M5.38095238,2 L8.43960536,18.0579282 C8.74978209,19.6863559 10.3432023,21 12.0001262,21 L22.9998738,21 C24.6660385,21 26.3688961,19.7088636 26.8239525,18.1161661 L29.4522042,8.91728541 C29.7558034,7.85468808 29.1057238,7 28.0025781,7 L11.9947712,7 C11.4509254,7 11.0447708,7.44771525 11.0999985,8 C11.1556111,8.55613518 11.645519,9 12.1950983,9 L26.5048987,9 C27.0470322,9 27.3712135,9.4292882 27.2123474,9.95884204 L25.0748805,17.0837315 C24.7557783,18.1474056 23.6019465,19 22.4941413,19 L12.5058586,19 C11.39706,19 10.3382051,18.1216853 10.1386211,17.0382291 L7.18080506,0.981513234 C7.07967847,0.432540298 6.55228475,1.03292886e-13 6,1.14575016e-13 C5.99951148,1.14584996e-13 5.99902311,3.40187298e-07 5.99853489,1.02033263e-06 C5.99804735,3.45068384e-07 5.99755905,0 5.99707067,0 L1.00292933,0 C0.437881351,0 0,0.44771525 0,1 C0,1.55613518 0.449026756,2 1.00292933,2 L5.38095238,2 Z M9,24 C9,23.4477153 9.44494629,23 9.99339768,23 L26.0066023,23 C26.5552407,23 27,23.4438648 27,24 C27,24.5522847 26.5550537,25 26.0066023,25 L9.99339768,25 C9.44475929,25 9,24.5561352 9,24 Z M12.5,29 C13.3284271,29 14,28.3284271 14,27.5 C14,26.6715729 13.3284271,26 12.5,26 C11.6715729,26 11,26.6715729 11,27.5 C11,28.3284271 11.6715729,29 12.5,29 Z M23.5,29 C24.3284271,29 25,28.3284271 25,27.5 C25,26.6715729 24.3284271,26 23.5,26 C22.6715729,26 22,26.6715729 22,27.5 C22,28.3284271 22.6715729,29 23.5,29 Z" id="Rectangle-90"></path>
        </g>
    </g>
</svg>

<?xml version="1.0" encoding="UTF-8" standalone="no"?>
<svg width="30" height="30" viewBox="0 0 30 30" xmlns="http://www.w3.org/2000/svg">
  <path d="M5.381 2L8.44 18.058C8.75 19.686 10.343 21 12 21h11c1.666 0 3.369-1.291 3.824-2.884l2.628-9.199C29.756 7.855 29.106 7 28.002 7H11.996a.89.89 0 0 0-.895 1c.056.556.546 1 1.095 1h14.31c.542 0 .866.43.707.959l-2.137 7.125c-.32 1.063-1.473 1.916-2.58 1.916h-9.99c-1.108 0-2.167-.878-2.366-1.962L7.18.982C7.08.432 6.552 0 6 0a1.052 1.052 0 0 0-.003 0H1.003A.994.994 0 0 0 0 1c0 .556.449 1 1.003 1H5.38zM9 24c0-.552.445-1 .993-1h16.014c.548 0 .993.444.993 1 0 .552-.445 1-.993 1H9.993A.994.994 0 0 1 9 24zm3.5 5a1.5 1.5 0 1 0 0-3 1.5 1.5 0 0 0 0 3zm11 0a1.5 1.5 0 1 0 0-3 1.5 1.5 0 0 0 0 3z" fill="#050505" fill-rule="evenodd"/>
</svg>
